X:303
T:no name
R:reel
S:Session in Cleary's back room, Miltown Malbay 1991
N:Similar to #313, Se\'an sa Cheo
Z:id:hn-reel-303
M:C|
K:Amix
cd|:~e3f ecAc|efec d2cd|eA~A2 efge|1 dBGB d2cd:|2 dBGB dfed||
|:cAA^G ~A3B|cAAc efed|cA~A2 efge|1 dBGB dfed:|2 dBGB d2fg||
|:aece aece|~a3g e2ef|1 gdBd gdBd|(3gag fg efge:|2 ~g3e ~f3d|(3gag fg ed||
